img/icons/facebook-writting.svg

<?xml version="1.0" encoding="utf-8"?>
<!DOCTYPE svg PUBLIC "-//W3C//DTD SVG 1.1//EN" "http://www.w3.org/Graphics/SVG/1.1/DTD/svg11.dtd">
<svg version="1.1" xmlns="http://www.w3.org/2000/svg" width="266" height="100" viewBox="0 0 266 100"
	overflow="visible" enable-background="new 0 0 266 100" xml:space="preserve">
	<!-- <g><rect fill="#3B5998" width="266" height="100"/></g> -->
	<g>
		<path fill="#ffffff" d="M140.0205078,49.5966797c-1.7841797,0-3.0703125,0.5849609-4.3740234,1.1811523v13.4858398
			c1.2490234,0.1191406,1.9648438,0.1191406,3.1503906,0.1191406c4.2822266,0,4.8691406-1.9609375,4.8691406-4.6992188v-6.4414062
			C143.6660156,51.2207031,142.9951172,49.5966797,140.0205078,49.5966797z M111.5825195,48.8608398
			c-2.9707031,0-3.6494141,1.6313477-3.6494141,3.6508789v1.1347656h7.2944336v-1.1347656
			C115.2275391,50.4921875,114.5498047,48.8608398,111.5825195,48.8608398z M56.4926758,62.8984375
			c0,1.5976562,0.7539062,2.4277344,2.4179688,2.4277344c1.7851562,0,2.8417969-0.5820312,4.1445312-1.1796875v-3.1992188
			h-3.9033203C57.3046875,60.9472656,56.4926758,61.2910156,56.4926758,62.8984375z M167.6835938,49.5966797
			c-2.9755859,0-4.0068359,1.6240234-4.0068359,3.6455078v7.3789062c0,2.0273438,1.03125,3.65625,4.0068359,3.65625
			c2.9677734,0,4.0068359-1.6289062,4.0068359-3.65625v-7.3789062
			C171.6904297,51.2207031,170.6513672,49.5966797,167.6835938,49.5966797z M41.9091797,71.171875h-8.7475586V49.9975586h-4.371582
			v-7.2963867h4.371582v-4.3808594c0-5.9526367,2.4672852-9.4921875,9.4790039-9.4921875h5.8378906v7.2978516h-3.6489258
			c-2.7299805,0-2.909668,1.0195312-2.909668,2.9228516l-0.0107422,3.6523438h6.6103516l-0.7734375,7.2963867h-5.8369141V71.171875
			z M71.8061523,71.2265625H64.515625l-0.315918-1.84375c-3.3291016,1.84375-6.300293,2.1425781-8.2602539,2.1425781
			c-5.3466797,0-8.1933594-3.5722656-8.1933594-8.5117188c0-5.828125,3.3208008-7.9082031,9.262207-7.9082031h6.046875v-1.2597656
			c0-2.9741211-0.3408203-3.8481445-4.9155273-3.8481445H50.659668l0.7314453-7.2963867h8.1762695
			c10.0380859,0,12.2387695,3.1708984,12.2387695,11.203125V71.2265625z M96.5991211,50.5327148
			c-4.5371094-0.7773438-5.8398438-0.9482422-8.0229492-0.9482422c-3.9213867,0-5.1064453,0.8652344-5.1064453,4.1948242v6.2988281
			c0,3.3300781,1.1850586,4.1992188,5.1064453,4.1992188c2.1831055,0,3.4858398-0.1738281,8.0229492-0.9550781v7.1171875
			c-3.9741211,0.890625-6.5629883,1.125-8.7514648,1.125c-9.3920898,0-13.1254883-4.9394531-13.1254883-12.0742188v-5.1113281
			c0-7.1411133,3.7333984-12.0888672,13.1254883-12.0888672c2.1884766,0,4.7773438,0.2353516,8.7514648,1.1298828V50.5327148z
			 M123.9750977,59.4902344h-16.0419922v0.5878906c0,3.3300781,1.1860352,4.1992188,5.1064453,4.1992188
			c3.5244141,0,5.675293-0.1738281,10.2041016-0.9550781v7.1171875c-4.3676758,0.890625-6.6435547,1.125-10.9291992,1.125
			c-9.3925781,0-13.1279297-4.9394531-13.1279297-12.0742188v-5.84375c0-6.2426758,2.7714844-11.3564453,12.3959961-11.3564453
			s12.3925781,5.0541992,12.3925781,11.3564453V59.4902344z M152.4121094,59.625
			c0,6.8964844-1.9707031,11.9257812-13.9111328,11.9257812c-4.3115234,0-6.8408203-0.3789062-11.5996094-1.1113281V31.019043
			l8.7451172-1.4594727v13.7890625c1.8896484-0.7021484,4.3359375-1.0585938,6.5625-1.0585938
			c8.7460938,0,10.203125,3.9208984,10.203125,10.2216797V59.625z M180.4453125,59.7753906
			c0,5.9492188-2.4560547,11.71875-12.7324219,11.71875c-10.28125,0-12.7832031-5.7695312-12.7832031-11.71875V54.03125
			c0-5.9521484,2.5019531-11.7226562,12.7832031-11.7226562c10.2763672,0,12.7324219,5.7705078,12.7324219,11.7226562V59.7753906z
			 M208.4589844,59.7753906c0,5.9492188-2.4589844,11.71875-12.7333984,11.71875
			c-10.28125,0-12.7832031-5.7695312-12.7832031-11.71875V54.03125c0-5.9521484,2.5019531-11.7226562,12.7832031-11.7226562
			c10.2744141,0,12.7333984,5.7705078,12.7333984,11.7226562V59.7753906z M237.2080078,71.171875h-9.4794922l-8.0166016-13.3828125
			V71.171875h-8.7480469V31.019043l8.7480469-1.4594727v25.8486328l8.0166016-12.7070312h9.4794922l-8.7519531,13.8671875
			L237.2080078,71.171875z M195.6962891,49.5966797c-2.9707031,0-4.0019531,1.6240234-4.0019531,3.6455078v7.3789062
			c0,2.0273438,1.03125,3.65625,4.0019531,3.65625c2.9667969,0,4.0166016-1.6289062,4.0166016-3.65625v-7.3789062
			C199.7128906,51.2207031,198.6630859,49.5966797,195.6962891,49.5966797z"/>
		<path fill="#FFFFFF" d="M242.2011719,66.1777344c1.4726562,0,2.6464844,1.2011719,2.6464844,2.7011719
			c0,1.5234375-1.1738281,2.7109375-2.6572266,2.7109375c-1.4755859,0-2.6728516-1.1875-2.6728516-2.7109375
			c0-1.5,1.1972656-2.7011719,2.6728516-2.7011719H242.2011719z M242.1904297,66.5976562
			c-1.1865234,0-2.1582031,1.0214844-2.1582031,2.28125c0,1.2832031,0.9716797,2.2910156,2.1689453,2.2910156
			c1.1982422,0.0117188,2.1552734-1.0078125,2.1552734-2.2792969s-0.9570312-2.2929688-2.1552734-2.2929688H242.1904297z
			 M241.6865234,70.4511719h-0.4804688V67.4375c0.2519531-0.0351562,0.4921875-0.0703125,0.8515625-0.0703125
			c0.4560547,0,0.7539062,0.0957031,0.9365234,0.2265625c0.1767578,0.1328125,0.2724609,0.3359375,0.2724609,0.6230469
			c0,0.3984375-0.2617188,0.6367188-0.5849609,0.734375v0.0234375c0.2626953,0.0488281,0.4423828,0.2871094,0.5029297,0.7304688
			c0.0703125,0.46875,0.1425781,0.6484375,0.1904297,0.7460938h-0.5029297
			c-0.0712891-0.0976562-0.1435547-0.3730469-0.2041016-0.7695312c-0.0703125-0.3828125-0.2636719-0.5273438-0.6484375-0.5273438
			h-0.3330078V70.4511719z M241.6865234,68.7832031h0.3476562c0.3935547,0,0.7285156-0.1445312,0.7285156-0.5175781
			c0-0.2636719-0.1904297-0.5273438-0.7285156-0.5273438c-0.1572266,0-0.265625,0.0117188-0.3476562,0.0234375V68.7832031z"/>
	</g>
</svg>

<svg xmlns="http://www.w3.org/2000/svg" width="266" height="100" overflow="visible"><path fill="#fff" d="M140.02 49.597c-1.784 0-3.07.585-4.374 1.18v13.487c1.25.119 1.965.119 3.15.119 4.283 0 4.87-1.961 4.87-4.7v-6.44c0-2.022-.67-3.646-3.645-3.646zm-28.437-.736c-2.971 0-3.65 1.631-3.65 3.65v1.135h7.295v-1.134c0-2.02-.678-3.651-3.645-3.651zm-55.09 14.037c0 1.598.754 2.428 2.418 2.428 1.785 0 2.841-.582 4.144-1.18v-3.199h-3.903c-1.847 0-2.66.344-2.66 1.951zm111.19-13.301c-2.975 0-4.006 1.624-4.006 3.645v7.38c0 2.026 1.031 3.655 4.007 3.655 2.967 0 4.006-1.629 4.006-3.656v-7.379c0-2.021-1.039-3.645-4.006-3.645zM41.91 71.172h-8.747V49.998H28.79V42.7h4.372v-4.38c0-5.953 2.467-9.493 9.479-9.493h5.838v7.298h-3.65c-2.73 0-2.91 1.02-2.91 2.923l-.01 3.652h6.61l-.773 7.297H41.91v21.174zm29.897.055h-7.29l-.316-1.844c-3.33 1.844-6.3 2.142-8.26 2.142-5.347 0-8.194-3.572-8.194-8.511 0-5.828 3.32-7.909 9.262-7.909h6.047v-1.26c0-2.973-.34-3.847-4.915-3.847h-7.48l.731-7.297h8.176c10.038 0 12.24 3.171 12.24 11.203v17.323zM96.6 50.533c-4.537-.778-5.84-.949-8.023-.949-3.921 0-5.106.866-5.106 4.195v6.3c0 3.33 1.185 4.198 5.106 4.198 2.183 0 3.486-.173 8.023-.955v7.117c-3.974.891-6.563 1.125-8.751 1.125-9.392 0-13.126-4.939-13.126-12.074v-5.11c0-7.141 3.734-12.089 13.126-12.089 2.188 0 4.777.235 8.751 1.13v7.113zm27.376 8.957h-16.042v.588c0 3.33 1.186 4.2 5.107 4.2 3.524 0 5.675-.174 10.204-.956v7.117c-4.368.891-6.644 1.125-10.93 1.125-9.392 0-13.127-4.939-13.127-12.074v-5.844c0-6.242 2.771-11.356 12.396-11.356s12.392 5.054 12.392 11.356v5.844zm28.437.135c0 6.896-1.97 11.926-13.911 11.926-4.312 0-6.84-.38-11.6-1.112V31.02l8.745-1.46v13.79c1.89-.703 4.336-1.059 6.563-1.059 8.746 0 10.203 3.92 10.203 10.222v7.113zm28.033.15c0 5.95-2.456 11.72-12.732 11.72-10.281 0-12.783-5.77-12.783-11.72v-5.744c0-5.952 2.502-11.722 12.783-11.722 10.276 0 12.732 5.77 12.732 11.722v5.744zm28.014 0c0 5.95-2.459 11.72-12.733 11.72-10.282 0-12.784-5.77-12.784-11.72v-5.744c0-5.952 2.502-11.722 12.784-11.722 10.274 0 12.733 5.77 12.733 11.722v5.744zm28.749 11.397h-9.48l-8.016-13.383v13.383h-8.748V31.019l8.748-1.46v25.85l8.017-12.708h9.479l-8.752 13.867 8.752 14.604zm-41.512-21.575c-2.97 0-4.002 1.624-4.002 3.645v7.38c0 2.026 1.032 3.655 4.002 3.655 2.967 0 4.017-1.629 4.017-3.656v-7.379c0-2.021-1.05-3.645-4.017-3.645z"/><path fill="#FFF" d="M242.201 66.178c1.473 0 2.647 1.2 2.647 2.7 0 1.524-1.174 2.712-2.658 2.712-1.475 0-2.672-1.188-2.672-2.711 0-1.5 1.197-2.701 2.672-2.701h.011zm-.01.42c-1.187 0-2.159 1.021-2.159 2.28 0 1.284.972 2.292 2.17 2.292 1.197.012 2.154-1.008 2.154-2.28s-.957-2.292-2.155-2.292h-.01zm-.504 3.853h-.48v-3.013c.251-.036.491-.07.85-.07.457 0 .755.095.937.226.177.133.273.336.273.623 0 .398-.262.637-.585.734v.024c.262.048.442.287.503.73.07.469.142.649.19.746h-.503c-.071-.097-.143-.373-.204-.77-.07-.382-.264-.527-.648-.527h-.333v1.297zm0-1.668h.347c.394 0 .729-.144.729-.517 0-.264-.19-.528-.729-.528-.157 0-.265.012-.347.024v1.021z"/></svg>
